X: 15403
T: Gleann Na mBeanna
R: waltz
M: 3/4
K: Gmajor
D2|D2G2A2|B4cA|B4B2|A6|D2F2A2|c4B2|A6|G6|
D2G2B2|d4e2|d6|c4cA|B2D2G2|B4A2|G6|(3gag (3fgf (3efe||
d2G2A2|B4cA|B4B2|A6|D2F2A2|c4B2|A6|G6|
D2G2B2|d4e2|d6|c4cA|B2D2G2|B4A2|G6|G2B2c2||
d4d2|B2G2D2|d4d2|B2G2D2|
c4c2|A2F2D2|c4c2|A2F2D2|
d4d2|B2G2D2|d4d2|B2G2D2|
D2F2A2|D2F2A2|G6|1 G2B2c2:|2 (3gag (3fgf (3efe||

